X: 839
M: C|
L: 1/8
K: D
V: 1
|:\
fgfe d2B2 | AdAF E/E/EE2 | fgfe d2B2 | AdAF D/D/DD2 :|
|:\
V: 2 clef=bass middle=d
|:\
d'2d2 f2g2 | f2d2 a2A2 | d'2d2 f2g2 | fgaA d2D2 :|
|:\
d'2d2 g2e2 | a2f2 b2g2 | c'2a2 d'2a2 | bgfd a2A2 |
d'2d2 g2e2 | a2f2 b2g2 | c'2a2 d'2a2 | bgaA d2D2 |]

